X: 11241
Q: "With spirit."
M: 2/4
L: 1/16
K: C
|:!p!\
c2(cd) c2(cd) | c2(cd) (fedc) | d2(de) d2(de) | d2(de) (gfed) |\
e2(ef) e2(ef) | e2(ef) (agfe) | d2(de) d2d2 | (dcBA) (GABG) |!f!\
c2(cd) c2(cd) | c2(cd) (fedc) | d2(de) d2(de) |
d2(de) (gfed) |\
e2(ef) g2f2 | e2(ef) g2f2 | e2(ec) d2(dB) | c2c2c2z2 ::!p!\
g8- | g2e2(a2g2) |!f! f2(fe) f2(fe) | f2(fe) f4 |\
!p!f4f2f2 | f2d2g2f2 |!f!e2(ed) e2(ed) | e2(ed) e4 |\
!p!c2(cd) c2(cd) | c2(cd) (fedc) |
d2(de) d2(de) | d2(de) (gfed) |!ff!\
e2(ef) g2f2 | e2(ef) g2f2 | e2(ec) d2(dB) | c2c2c4 ::!p!\
(gabc') (bagf) | efga gfed |!f! c2cc d2dd | e2ee d4 |
!p!gabc' bagf | efga gfed |!f!c2dd e2d2 | c2c2c4 ::!p!\
gabc' bagf | efga gfed |!ff! c2dd e2d2 | c2c2c2z2 :|


